X:963
T:Blue Bells of Scotland, The
C:Joe Buchanan's Scottish Tome - Page 561.1
I:561 1
Z:Carl Allison
R:Waltz
L:1/4
M:3/4
K:D
A | d3 | c2 B | A3 | B>c d | F2 F | G2 E | D3- | D2 A |
d3 | c2 B | A3 | B>c d | F2 F | G2 E | D3- | D2 A |
F2 D | F2 A | d3 | B>c d | c2 A | B2 ^G | A3- | A B c |
d3 | c2 B | A3 | B>c d | F2 F | G2 E | D3- | D2 |]

